!!!COM: Beethoven, Ludwig van
!!!CDT: 1770///-1827///
!!!OTL: Sonata no. 21 for Piano (Waldstein)
!!!ODT: 1803///-1804///
!!!ODE: Graf Ferdinand von Waldstein
!!!OPS: Op. 53
!!!OMV: No. 4: Prestissimo
**kern	**kern	**dynam
*Ipiano	*Ipiano	*Ipiano
*staff2	*staff1	*staff1/2
*clefF4	*clefG2	*
*k[]	*k[]	*
*C:	*C:	*
*M2/2	*M2/2	*
*MM220	*MM220	*
=1-	=1-	=1-
4CC/ 4C/	4c/	f
*clefG2	*	*
8e/L	4ggg\	p
8g/J	.	.
8e/L	(4.ggg\	.
8g/	.	.
8e/	.	.
8g/J	8eee\	.
=2	=2	=2
8f/L	4ddd\	.
8g/	.	.
8f/	4gg\	.
8g/J	.	.
8e/L	4ccc\	.
8g/	.	.
8e/	4eee\)	.
8g/J	.	.
=3	=3	=3
8e/L	4r	.
8g/	.	.
8e/	4ggg''\	.
8g/J	.	.
8e/L	(4.ggg\	.
8g/	.	.
8e/	.	.
8g/J	8eee\	.
=4	=4	=4
8f/L	4ddd\	.
8g/	.	.
8f/	4gg\	.
8g/J	.	.
8e/L	4ccc\)	.
8g/	.	.
8e/	4r	.
8g/J	.	.
=5	=5	=5
*^	*	*
8e/L	4c\	8ggg\L	.
8g/	.	8fff#\	.
8e/	4c\	8ggg\	.
8g/J	.	8fff#\J	.
8e/L	4c\	8ggg\L	.
8g/	.	8fff#\	.
8e/	4c\	8ggg\	.
8g/J	.	8eee\J	.
=6	=6	=6	=6
8f/L	4c\	8ddd\L	.
8g/	.	8ccc#\	.
8f/	4c\	8ddd\	.
8g/J	.	8gg\J	.
8e/L	4c\	8cccn\L	.
8g/	.	8bb\	.
8e/	4c\	8ccc\	.
8g/J	.	8eee\J	.
=7	=7	=7	=7
8e/L	4c\	8ggg\L	.
8g/	.	8fff#\	.
8e/	4c\	8ggg\	.
8g/J	.	8fff#\J	.
8e/L	4c\	8ggg\L	.
8g/	.	8fff#\	.
8e/	4c\	8ggg\	.
8g/J	.	8eee\J	.
=8	=8	=8	=8
8f/L	4c\	8ddd\L	.
8g/	.	8ccc#\	.
8f/	4c\	8ddd\	.
8g/J	.	8gg\J	.
8e/L	4c\	8cccn\L	.
8g/	.	8bb\	.
8e/	4c\	8ccc\	.
8g/J	.	8eee\J	.
=9	=9	=9	=9
4c\	8f/L	8ddd\L	<
.	8g/	8ccc#\	.
4c\	8f/	8ddd\	.
.	8g/J	8gg\J	.
*v	*v	*	*
*clefF4	*	*
*^	*	*
8e\L	2r	8cccn\L	f
8d#\	.	8bb\	.
8e\	.	8ccc\	.
8c\J	.	8eee\J	.
*v	*v	*	*
=10	=10	=10
8dn\L	8bb\L	.
8c#\	8aa#\	.
8d\	8bb\	.
8B\J	8ddd\J	.
8cn\L	8aan\L	.
8B\	8gg#\	.
8c\	8aa\	.
8A\J	8ccc\J	.
=11	=11	=11
8B\L	8ggn\L	.
8A#\	8ff#\	.
8B\	8gg\	.
8G\J	8bb\J	.
8An\L	8ffn\L	.
8G#\	8ee\	.
8A\	8ff\	.
8F\J	8aa\J	.
=12	=12	=12
8Gn\L	8ee\L	.
8F#\	8dd#\	.
8G\	8ee\	.
8E\J	8ggn\J	.
8Fn\L	8ddn\L	.
8E\	8cc#\	.
8F\	8dd\	.
8D\J	8ff\J	.
=13	=13	=13
8E\L	8ccn\L	.
8D#\	8b\	.
8E\	8cc\	.
8C\J	8ee\J	.
8c\L	8ee\L	.
8B\	8dd#\	.
8c\	8ee\	.
8e\J	8cc\J	.
=14	=14	=14
8B\L	8ddn\L	.
8A#\	8cc#\	.
8B\	8dd\	.
8d\J	8b\J	.
8An\L	8ccn\L	.
8G#\	8b\	.
8A\	8cc\	.
8c\J	8a\J	.
=15	=15	=15
8Gn\L	8b/L	.
8F#\	8a#/	.
8G\	8b/	.
8B\J	8g/J	.
8Fn\L	8an/L	.
8E\	8g#/	.
8F\	8a/	.
8A\J	8f/J	.
=16	=16	=16
8E\L	8gn/L	.
8D#\	8f#/	.
8E\	8g/	.
8G\J	8e/J	.
8Dn\L	8fn/L	.
8C#\	8e/	.
8D\	8f/	.
8F\J	8d/J	.
=17	=17	=17
4Cn/	8e/L	ff
.	8c/	.
8r	8G/	.
(8C/	8e/J	.
4GG/)	8d/L	.
.	8B/	.
8r	8G/	.
(8GG/	8d/J	.
=18	=18	=18
4D/)	8f/L	.
.	8d/	.
8r	8A/	.
(8D/	8f/J	.
4AA/)	8e/L	.
.	8c/	.
8r	8A/	.
(8AA/	8e/J	.
=19	=19	=19
4F\)	8a/L	.
.	8f/	.
8r	8c/	.
(8F\	8a/J	.
4C\)	8g/L	.
.	8e/	.
8r	8c/	.
(8C\	8cc/J	.
=20	=20	=20
4G\)	8d/L	.
.	8cc/	.
8r	8g/	.
(8G\	8d/J	.
4GG/)	8b/L	.
.	8g/	.
8r	8d/	.
(8GG/	8b/J	.
=21	=21	=21
4C/)	8ee\L	.
.	8cc\	.
8r	8g\	.
(8c\	8ee\J	.
4G\)	8g\L	.
.	8dd\	.
8r	8b\	.
(8G\	8g\J	.
=22	=22	=22
4D\)	8ff\L	.
.	8dd\	.
8r	8a\	.
(8d\	8ff\J	.
4A\)	8a\L	.
.	8ee\	.
8r	8cc\	.
(8A\	8a\J	.
=23	=23	=23
4F\)	8aa\L	.
.	8ff\	.
8r	8cc\	.
(8f\	8aa\J	.
4F\)	8cc\L	.
.	8aa\	.
8r	8ff\	.
(8f\	8cc\J	.
=24	=24	=24
4F\)	8aa\L	.
.	8ff\	.
8r	8cc\	.
(8f\	8aa\J	.
4F\)	8cc\L	.
.	8aa\	.
8r	8ff\	.
(8F\	8cc\J	.
=25	=25	=25
4FF/)	4r	f
8A\L	4ccc''\	p
8c\J	.	.
8A\L	4.ccc\	.
8c\	.	.
8A\	.	.
8c\J	8aa\	.
=26	=26	=26
8B-\L	4gg\	.
8c\	.	.
8B-\	4cc\	.
8c\J	.	.
8A\L	4ff\	.
8c\	.	.
8A\	4aa\	.
8c\J	.	.
=27	=27	=27
8A\L	4r	.
8c\	.	.
8A\	8ccc\L	.
8c\J	8bbn\J	.
8A\L	8ccc\L	.
8c\	8bb\	.
8A\	8ccc\	.
8c\J	8aa\J	.
=28	=28	=28
8B-\L	8gg\L	.
8c\	8ff#\	.
8B-\	8gg\	.
8c\J	8cc\J	.
8A\L	8ffn\L	.
8c\	8ee\	.
8A\	8ff\	.
8c\J	8aa\J	.
=29	=29	=29
4GG/	4r	f
4Bn\	4ff''\ 4fff''\	p
4d\	4.ff\ (4.fff\	.
4B\	.	.
.	8dd\ 8ddd\	pp
=30	=30	=30
(4c\	4ee\ 4eee\	.
4e\	4cc\ 4ccc\	.
4d\	4b\ 4bb\	.
4B\)	4dd\ 4ddd\)	.
=31	=31	=31
4G\	4r	.
4B\	4ff''\ 4fff''\	.
4d\	4.ff\ (4.fff\	.
4B\	.	.
.	8dd\ 8ddd\	.
=32	=32	=32
4c\	4ee\ 4eee\	.
4e\	4cc\ 4ccc\	.
4d\	4b\ 4bb\	.
4B\	4dd\ 4ddd\	.
=33	=33	=33
4A\	4cc\ 4ccc\	.
4c\	4a\ 4aa\	.
4B\	4g\ 4gg\)	.
4G\	4b\ (4bb\	.
=34	=34	=34
4F\	4a\ 4aa\	.
4A\	4f\ 4ff\	.
4G\	4e\ 4ee\	.
4E\	4g\ 4gg\	.
=35	=35	=35
4D\	4f/ 4ff/	.
4F\	4d/ 4dd/	.
4C\	4e/ 4ee/	.
4E\	4c/ 4cc/	.
=36	=36	=36
4BB/	4d/ 4dd/	.
4D/	4B/ 4b/	.
4AA/	4c/ 4cc/	.
4C/	4A/ 4a/	.
=37	=37	=37
4GG/	4B/ 4b/	.
4BB/	4G/ 4g/	.
4FF/	4A/ 4a/	.
*	*clefF4	*
4AA/	4F\ 4f\	.
=38	=38	=38
(4EE/	4G\ 4g\	.
4GG/	4E\ 4e\	.
4GGG/ 4DD/	4F\ 4f\	.
4GG/)	4BB\ 4B\)	ff
=39	=39	=39
4AAA-/ 4AA-/	4C\ 4E-\ 4c\	.
4r	4r	.
4A-''\ 4c''\ 4e-''\	2r	.
4r	.	.
*	*clefG2	*
=40	=40	=40
1A- 1c 1e-	6r	.
.	(6cc\	.
.	6ee-\	.
.	6aa-\	.
.	6ccc\	.
.	6eee-\)	.
=41	=41	=41
4EE-/	(6ddd-\	p
.	6bb-\	.
4r	.	.
.	6gg\	.
4E-\ 4G\ 4B-\ 4d-\	6dd-\	.
.	6b-\	.
4r	.	.
.	6g\)	.
=42	=42	=42
4EEn/	(6ddd-\	.
.	6bb-\	.
4r	.	.
.	6gg\	.
4En\ 4G\ 4B-\ 4d-\	6dd-\	.
.	6b-\	.
4r	.	.
.	6g\)	.
=43	=43	=43
4FF/	1r	ff
4r	.	.
4F''\ 4A-''\ 4c''\	.	.
4r	.	.
=44	=44	=44
1F 1A- 1c	6r	ff
.	(6a-\	.
.	6cc\	.
.	6ff\	.
.	6aa-\	.
.	6ccc\)	.
=45	=45	=45
4CC/	(6bb-\	p
.	6gg\	.
4r	.	.
.	6een\	.
4C\ 4E\ 4G\ 4B-\	6b-/	.
.	6g/	.
4r	.	.
.	6en/)	.
=46	=46	=46
4CC/	(6bb-\	.
.	6gg\	.
4r	.	.
.	6ee\	.
4C\ 4E\ 4G\ 4B-\	6b-/	.
.	6g/	.
4r	.	.
.	6e/)	.
=47	=47	=47
4DD-/	1r	ff
4r	.	.
4D-''\ 4F''\ 4A-''\	.	.
4r	.	.
=48	=48	=48
1D- 1F 1A-	6r	.
.	(6f/	ff
.	6a-/	.
.	6dd-\	.
.	6ff\	.
.	6aa-\)	.
=49	=49	=49
4AAA-/	(6gg-\	p
.	6ee-\	.
4r	.	.
.	6cc\	.
4AA-\ 4C\ 4E-\ 4G-\	6g-/	.
.	6e-/	.
4r	.	.
.	6c/)	.
=50	=50	=50
4AAAn/	(6gg-\	.
.	6ee-\	.
4r	.	.
.	6cc\	.
4AAn\ 4C\ 4E-\ 4G-\	6g-/	.
.	6e-/	.
4r	.	.
.	6c/)	.
=51	=51	=51
4BBB-/	6r	.
.	(6F/	pp
4r	.	.
.	6B-/	.
4BB-\ 4D-\ 4F\	6d-/	.
.	6f/	.
4r	.	.
.	6b-/	.
=52	=52	=52
1BB- 1D- 1F	6dd-\	.
.	6ff\	.
.	6bb-\	.
.	6ddd-\	.
.	6fff\	.
.	6ff\)	.
=53	=53	=53
4AAA-/	6r	pp
.	6F/	.
4r	.	.
.	6A-/	.
4AA-\ 4C\ 4F\	6c/	.
.	6f/	.
4r	.	.
.	6a-/	.
=54	=54	=54
1AA- 1C 1F	6cc\	.
.	6ff\	.
.	6aa-\	.
.	6ccc\	.
.	6fff\	.
.	6ff\	.
=55	=55	=55
4GGG/	6r	pp
.	6F/	.
4r	.	.
.	6Bn/	.
4GG\ 4BBn\ 4D\ 4F\	6d/	.
.	6f/	.
4r	.	.
.	6bn/	.
=56	=56	=56
1GG 1BB 1D 1F	6dd\	.
.	6ff\	.
.	6bbn\	.
.	6ddd\	.
.	6fff\	.
.	6ff\	.
=57	=57	=57
4AAA-/	6r	pp
.	6E-/	.
4r	.	.
.	6A-/	.
4AA-\ 4C\ 4E-\	6c/	.
.	6e-/	.
4r	.	.
.	6a-/	.
=58	=58	=58
1AA- 1C 1E-	6cc\	.
.	6ee-\	.
.	6aa-\	.
.	6ccc\	.
.	6eee-\	.
.	6ee-\	.
=59	=59	=59
6AAAn/	2r	ppp
6CC/	.	.
6EE-/	.	.
*	*clefF4	*
6FF#/	6r	.
6r	6AAn/	.
6r	6C/	.
=60	=60	=60
1r	6E-\	.
.	6F#\	.
.	6An\	.
*	*clefG2	*
.	6c/	.
.	6e-/	.
.	6f#/	.
=61	=61	=61
1r	6an\	.
.	6cc\	.
.	6ee-\	.
.	6ff#\	.
.	6aan\	.
.	6ccc\	.
=62	=62	=62
1r	(6eee-\	.
.	6ccc\	.
.	6aa\)	.
.	(6fff#\	.
.	6eee-\	.
.	6ccc\)	.
=63	=63	=63
4GGG/ 4CC/ 4EEn/ 4GG/	8r	.
.	8gg\ (8ggg\L	pp
4r	8ff\ 8fff\	.
.	8een\ 8eeen\J	.
2r	8dd\ 8ddd\L	.
.	8cc\ 8ccc\	.
.	8bn\ 8bbn\	.
.	8an\ 8aan\J	.
=64	=64	=64
1r	4g\ 4gg\	.
.	8f/ 8ff/L	.
.	8e/ 8ee/J	.
.	8d/ 8dd/L	.
.	8c/ 8cc/	.
.	8B/ 8b/	.
.	8A/ 8a/J)	.
=65	=65	=65
8r	1G 1c 1e [1g	.
8GGG/ (8GG/L	.	.
8AAA/ 8AA/	.	.
8BBB/ 8BB/J	.	.
8CC/ 8C/L	.	.
8DD/ 8D/	.	.
8EE/ 8E/	.	.
8FF/ 8F/J	.	.
=66	=66	=66
4GG\ 4G\	2B/ 2d/ 2g/]	.
8AA\ 8A\L	.	.
8BB\ 8B\J	.	.
8C\ 8c\L	2dd\ 2ff\	.
8D\ 8d\	.	.
8E\ 8e\	.	.
8F\ 8f\J	.	.
=67	=67	=67
4G\ 4g\)	8cc''\ 8ee''\L	.
.	8gg\ 8ggg\	pp
4r	8ff\ 8fff\	.
.	8ee\ 8eee\J	.
2r	8dd\ 8ddd\L	.
.	8cc\ 8ccc\	.
.	8b\ 8bb\	.
.	8a\ 8aa\J	.
=68	=68	=68
1r	4g\ 4gg\	.
.	8f/ 8ff/L	.
.	8e/ 8ee/J	.
.	8d/ 8dd/L	.
.	8c/ 8cc/	.
.	8B/ 8b/	.
.	8A/ 8a/J	.
=69	=69	=69
8r	1G 1c 1e [1g	.
8GGG/ (8GG/L	.	.
8AAA/ 8AA/	.	.
8BBB/ 8BB/J	.	.
8CC/ 8C/L	.	.
8DD/ 8D/	.	.
8EE/ 8E/	.	.
8FF/ 8F/J	.	.
=70	=70	=70
4GG\ 4G\	2B/ 2d/ 2g/]	.
8AA\ 8A\L	.	.
8BB\ 8B\J	.	.
8C\ 8c\L	2dd\ 2ff\	.
8D\ 8d\	.	.
8E\ 8e\	.	.
8F\ 8f\J	.	.
=71	=71	=71
4G\ 4g\)	8cc''\ 8ee''\L	.
.	8gg\ 8ggg\	pp
4r	8ff\ 8fff\	.
.	8ee\ 8eee\J	.
2r	8dd\ 8ddd\L	.
.	8cc\ 8ccc\	.
.	8b\ 8bb\	.
.	8a\ 8aa\J	.
=72	=72	=72
1r	4g\ 4gg\	.
.	8f/ 8ff/L	.
.	8e/ 8ee/J	.
.	8d/ 8dd/L	.
.	8c/ 8cc/	.
.	8B/ 8b/	.
.	8A/ 8a/J	.
=73	=73	=73
8r	8G/ 8g/L	<
8G\L	8A/	.
8F\	8B/	.
8E\J	8c/J	.
8D/L	8d/L	.
8C/	8e/	.
8BB/	8f/	.
8AA/J	8f#/J	.
=74	=74	=74
4GG/	8g\L	.
.	8a\	.
8FF/L	8b\	.
8EE/J	8cc\J	.
8DD/L	8dd\L	.
8CC/	8ee\	.
8AAA/	8ff\	.
8AAA/J	8ff#\J	.
=75	=75	=75
8GGG/L	[1gg	f
8AAA/	.	.
8BBB/	.	.
8CC/J	.	.
8DD/L	.	.
8EE/	.	.
8FF/	.	.
8FF#/J	.	.
=76	=76	=76
8GG/L	1gg_	.
8AA/	.	.
8BB/	.	.
8C/J	.	.
8D\L	.	.
8E\	.	.
8F\	.	.
8F#\J	.	.
=77	=77	=77
8G\L	1gg_	>
8A\	.	.
8B\	.	.
8c\J	.	.
8d\L	.	.
8e\	.	.
8f\	.	.
8f#\J	.	.
*clefG2	*	*
=78	=78	=78
8g\L	1gg_	.
8a\	.	.
8b\	.	.
8cc\J	.	.
8dd\L	.	.
8ee\	.	.
8ff\	.	.
8ee\J	.	.
=79	=79	=79
4ff\	1gg_	p
4r	.	.
8r	.	.
(8ee\L	.	.
8ff\	.	.
8ee\J	.	.
=80	=80	=80
4ff'\)	1gg_	.
4r	.	.
8r	.	.
(8ee\L	.	.
8ff\	.	.
8ee\J	.	.
=81	=81	=81
4ff'\)	1gg_	.
4r	.	.
2r	.	.
=82	=82	=82
1r	1gg_	.
*clefF4	*	*
=83	=83	=83
*	*^	*
(6C\	2r	1gg_	pp
6G\	.	.	.
6c\)	.	.	.
(6e\	2ggg/	.	.
6c\	.	.	.
6e\)	.	.	.
=84	=84	=84	=84
6g\	2.ggg/	1gg_	.
6e\	.	.	.
6g\	.	.	.
6e\	.	.	.
6c\	.	.	.
.	4eee/	.	.
6e\	.	.	.
=85	=85	=85	=85
6f\	2ddd/	2gg\]	.
6d\	.	.	.
6f\	.	.	.
6d\	2gg/	[2gg\	.
6B\	.	.	.
6d\	.	.	.
=86	=86	=86	=86
6e\	(2ccc/	1gg]	.
6c\	.	.	.
6G\	.	.	.
6c\	4eee/)	.	.
6G\	.	.	.
.	4r	.	.
6E\	.	.	.
=87	=87	=87	=87
6C\	2r	[1gg	.
6G\	.	.	.
6c\	.	.	.
6e\	2ggg/	.	.
6c\	.	.	.
6e\	.	.	.
=88	=88	=88	=88
6g\	2.ggg/	1gg_	.
6e\	.	.	.
6g\	.	.	.
6e\	.	.	.
6c\	.	.	.
.	4eee/	.	.
6e\	.	.	.
=89	=89	=89	=89
6f\	2ddd/	2gg\]	.
6d\	.	.	.
6f\	.	.	.
6B\	2gg/	[2gg\	.
6d\	.	.	.
6B\	.	.	.
=90	=90	=90	=90
6c\	4ccc/	1gg]	.
6A\	.	.	.
.	4r	.	.
6G\	.	.	.
6F\	2r	.	.
6E\	.	.	.
6D\	.	.	.
=91	=91	=91	=91
6C\	2r	[1gg	pp
6G\	.	.	.
6c\	.	.	.
6e-\	2ggg/	.	.
6c\	.	.	.
6e-\	.	.	.
=92	=92	=92	=92
6g\	2.ggg/	1gg_	.
6e-\	.	.	.
6g\	.	.	.
6e-\	.	.	.
6c\	.	.	.
.	4eee-/	.	.
6e-\	.	.	.
=93	=93	=93	=93
6f\	2ddd/	2gg\]	.
6d\	.	.	.
6f\	.	.	.
6d\	2gg/	[2gg\	.
6B\	.	.	.
6d\	.	.	.
=94	=94	=94	=94
*^	*	*	*
6e-\	2r	4ccc/	1gg]	.
6c\	.	.	.	.
.	.	4r	.	.
6e-\	.	.	.	.
4E-\	6B-/	2r	.	.
.	6d-/	.	.	.
4r	.	.	.	.
.	6B-/	.	.	.
*v	*v	*	*	*
=95	=95	=95	=95
6AA-\	2r	2aa-\	pp
6E-\	.	.	.
6A-\	.	.	.
6c\	2eee-/	[2ee-\	.
6A-\	.	.	.
6c\	.	.	.
=96	=96	=96	=96
6e-\	2.eee-/	1ee-_	.
6c\	.	.	.
6e-\	.	.	.
6c\	.	.	.
6A-\	.	.	.
.	4ccc/	.	.
6c\	.	.	.
=97	=97	=97	=97
6d-\	2bb-/	2ee-\]	.
6B-'\	.	.	.
6d-\	.	.	.
6B-\	2ee-/	(2ee-\	.
6G\	.	.	.
6B-\	.	.	.
=98	=98	=98	=98
*^	*	*	*
6c\	2r	4aa-/	2ee-\)	.
6A-\	.	.	.	.
.	.	4r	.	.
6c\	.	.	.	.
4C\	6G/	2r	2een\	.
.	6B-/	.	.	.
4r	.	.	.	.
.	6G/	.	.	.
*v	*v	*	*	*
=99	=99	=99	=99
6FF\	2r	2ff\	pp
6C\	.	.	.
6F\	.	.	.
6A-\	2ccc/	[2cc\	.
6F\	.	.	.
6A-\	.	.	.
=100	=100	=100	=100
6c\	2.ccc/	1cc_	.
6A-\	.	.	.
6c\	.	.	.
6A-\	.	.	.
6F\	.	.	.
.	4aa-/	.	.
6A-\	.	.	.
=101	=101	=101	=101
6B-\	2gg/	2cc\]	.
6G\	.	.	.
6B-\	.	.	.
6G\	2cc/	[2cc\	.
6E\	.	.	.
6G\	.	.	.
=102	=102	=102	=102
6A-\	2.ff/	1cc_	.
6F\	.	.	.
6A-\	.	.	.
6F\	.	.	.
6C\	.	.	.
.	4aa-/	.	.
6F\	.	.	.
=103	=103	=103	=103
6B-\	2gg/	2cc\]	.
6G\	.	.	.
6B-\	.	.	.
6E\	2cc/	[2cc\	.
6G\	.	.	.
6E\	.	.	.
=104	=104	=104	=104
6F\	2ff/	1cc]	.
6A-\	.	.	.
6F\	.	.	.
6G\	2ee-/	.	.
6c\	.	.	.
6G\	.	.	.
*	*v	*v	*
=105	=105	=105
4A-\ 4f\	[1cc	.
4r	.	.
4r	.	.
4A-\ 4f\	.	.
=106	=106	=106
4A-\ 4f\	1cc_	.
4r	.	.
4r	.	.
4A-\ 4f\	.	.
=107	=107	=107
4A-\ 4f#\	1cc_	.
4r	.	.
4r	.	.
4A-\ 4f#\	.	.
=108	=108	=108
4A-\ 4f#\	1cc]	.
4r	.	.
4r	.	.
4A-\ 4f#\	.	.
=109	=109	=109
4G\ 4g\	[1dd	<
*clefG2	*	*
4g/ 4cc/	.	.
4g/ 4cc/	.	.
4g/ 4cc/	.	.
=110	=110	=110
4g/ 4cc/	1dd_	.
4g/ 4cc/	.	.
4g/ 4cc/	.	.
4g/ 4cc/	.	.
=111	=111	=111
*	*^	*
[1g [1b	4r	1dd_	.
.	4gg/	.	.
.	4gg/	.	.
.	4gg/	.	.
=112	=112	=112	=112
1g] 1b]	4gg/	1dd]	.
.	4gg/	.	.
.	4gg/	.	.
.	4gg/	.	.
*clefF4	*	*	*
=113	=113	=113	=113
4CC/	4r	4cc\ 4ee\	ff
4C'\ 4E'\ 4G'\ 4c'\	4ggg/	4gg\	.
[2C\ 2E\ 2G\ 2c\	4.ggg/	[2gg\	.
.	8eee/	.	.
=114	=114	=114	=114
2C\] 2F\ 2G\ 2B\	4ddd/	4gg\]	.
.	4gg/	2.gg\	.
2C\ 2E\ 2G\ 2c\	4ccc/	.	.
.	4eee/	.	.
=115	=115	=115	=115
4CC/	4r	4r	.
4C'\ 4E'\ 4G'\ 4c'\	4gg/	4g\	p
[2C\ 2E\ 2G\ 2c\	4.gg/	[2g\	.
.	8ee/	.	.
=116	=116	=116	=116
2C\_ 2F\ 2G\ 2B\	4dd/	4g\]	.
.	4g/	2.g\	.
2C\] 2E\ 2G\ 2c\	4cc/	.	.
.	4ee/	.	.
*	*v	*v	*
=117	=117	=117
4CC/	4r	.
4C'\ 4E'\ 4G'\ 4c'\	8ggg\L	ff
.	8fff#\J	.
[2C\ 2E\ 2G\ 2c\	8ggg\L	.
.	8fff#\	.
.	8ggg\	.
.	8eee\J	.
=118	=118	=118
2C\_ 2F\ 2G\ 2B\	8ddd\L	.
.	8ccc#\	.
.	8ddd\	.
.	8gg\J	.
2C\] 2E\ 2G\ 2c\	8cccn\L	.
.	8bb\	.
.	8ccc\	.
.	8eee\J	.
=119	=119	=119
4CC/	4r	.
4C'\ 4E'\ 4G'\ 4c'\	8gg\L	p
.	8ff#\J	.
[2C\ 2E\ 2G\ 2c\	8gg\L	.
.	8ff#\	.
.	8gg\	.
.	8ee\J	.
=120	=120	=120
2C\_ 2F\ 2G\ 2B\	8dd\L	.
.	8cc#\	.
.	8dd\	.
.	8g\J	.
2C\] 2E\ 2G\ 2c\	8ccn\L	.
.	8b\	.
.	8cc\	.
.	8ee\J	.
=121	=121	=121
4C\ 4F\	8d/L	.
.	8c#/	.
4C\ 4F\	8d/	.
.	8G/J	.
4C\ 4E\	8cn/L	.
.	8B/	.
4C\ 4E\	8c/	.
.	8e/J	.
=122	=122	=122
4C\ 4F\	8d/L	.
.	8c#/	.
4C\ 4F\	8d/	.
.	8G/J	.
4C\ 4E\	8cn/L	.
.	8B/	.
4C\ 4E\	8c/	.
.	8e/J	.
=123	=123	=123
4C\ 4F\	8d/L	<
.	8c#/	.
4C\ 4F\ 4G\	8d/	.
.	8B/J	.
4C\ 4D\ 4F\ 4G\ 4B\	8f/L	.
.	8e/	.
4C\ 4D\ 4F\ 4G\ 4B\	8f/	.
.	8d/J	.
=124	=124	=124
4C\ 4D\ 4F\ 4G\ 4B\	8b/L	.
.	8a#/	.
4C\ 4D\ 4F\ 4G\ 4B\	8b/	.
.	8f/J	.
4C\ 4D\ 4F\ 4G\ 4B\	8dd\L	.
.	8cc#\	.
4C\ 4D\ 4F\ 4G\ 4B\	8dd\	.
.	8b\J	.
=125	=125	=125
4C\ 4D\ 4F\ 4G\ 4B\	8ff\L	f
.	8ee\	.
4C\ 4D\ 4F\ 4G\ 4B\	8ff\	.
.	8dd\J	.
4C\ 4D\ 4F\ 4G\ 4B\	8bb\L	.
.	8aa#\	.
4C\ 4D\ 4F\ 4G\ 4B\	8bb\	.
.	8ff\J	.
=126	=126	=126
4C\ 4D\ 4F\ 4G\ 4B\	8ddd\L	.
.	8ccc#\	.
4C\ 4D\ 4F\ 4G\ 4B\	8ddd\	.
.	8bb\J	.
4C\ 4D\ 4F\ 4G\ 4B\	8fff\L	.
.	8eee\	.
4C\ 4D\ 4F\ 4G\ 4B\	8fff\	.
.	8bb\J	.
=127	=127	=127
4CC/ 4C/	4cccn\	ff
4E'\ 4G'\	4e'/ 4g'/	.
4C'\ 4E'\	4c'/ 4e'/	.
4G'\ 4c'\	4g'/ 4cc'/	.
=128	=128	=128
4E'\ 4G'\	4e'/ 4g'/	.
4c'\ 4e'\	4cc'\ 4ee'\	.
4G'\ 4c'\	4g'\ 4cc'\	.
*clefG2	*	*
4e'/ 4g'/	4ee'\ 4gg'\	.
=129	=129	=129
4c'/ 4e'/	4cc'\ 4ee'\	.
4g'/ 4cc'/	4gg'\ 4ccc'\	.
4e'/ 4g'/	4ee'\ 4gg'\	.
4cc'\ 4ee'\	4ccc'\ 4eee'\	.
=130	=130	=130
4g'\ 4cc'\	4gg'\ 4ccc'\	.
4ee'\ 4gg'\	4eee'\ 4ggg'\	.
4cc'\ 4ee'\	4ccc'\ 4eee'\	.
4ee'\ 4gg'\	4eee'\ 4ggg'\	.
=131	=131	=131
4cc\ 4ee\	4ccc\ 4eee\	.
4r	4r	.
2r	2r	.
=132	=132	=132
4e/ 4g/	4ee\ 4gg\	>
4r	4r	.
2r	2r	.
=133	=133	=133
4c/ 4e/	4cc\ 4ee\	.
4r	4r	.
2r	2r	.
*clefF4	*	*
=134	=134	=134
4E\ 4G\	4e/ 4g/	.
4r	4r	.
2r	2r	.
=135	=135	=135
4C/ 4E/	4c/ 4e/	.
4r	4r	.
2r	2r	.
*clefG2	*	*
=136	=136	=136
4e/ 4g/	4ee\ 4gg\	.
4r	4r	.
4e/ 4g/	4ee\ 4gg\	.
4r	4r	.
=137	=137	=137
4c/ 4e/	4cc\ 4ee\	.
4r	4r	.
2r	2r	.
*clefF4	*	*
=138	=138	=138
4CC'/ 4EE'/ 4GG'/ 4C'/	4gg'\ 4ccc'\ 4eee'\ 4ggg'\	ff
4r	4r	.
4CC'/ 4EE'/ 4GG'/ 4C'/	4gg'\ 4ccc'\ 4eee'\ 4ggg'\	.
4r	4r	.
=139	=139	=139
4CC'/ 4EE'/ 4GG'/ 4C'/	4ee'\ 4gg'\ 4ccc'\ 4eee'\	.
4r	4r	.
2r	2r	.
=140	=140	=140
4CC'/ 4EE'/ 4GG'/ 4C'/	4e'/ 4g'/ 4cc'/ 4ee'/	f
4r	4r	.
2r	2r	.
=141	=141	=141
4CC'/ 4EE'/ 4GG'/ 4C'/	4c'/ 4e'/ 4g'/ 4cc'/	f
4r	4r	.
2r	2r	.
==	==	==
*-	*-	*-
!!!verovio: beamFrenchStyle
!!!LOR: Durand 1915, plates 9327/9328, Paul Dukas, ed.
!!!PED: Dukas, Paul
!!!URL-vhv: https://verovio.humdrum.org/?file=beethoven/sonatas/sonata21-4.krn
!!!URL-pdf: https://github.com/craigsapp/beethoven-piano-sonatas/blob/master/reference-edition/sonata21-4.pdf
!!!ENC: Craig Stuart Sapp
!!!END: 2007/11/27
